X: 267
T:Crawford's
M:4/4
L:1/8
S:Siona
Z: Rachel Marsh
K:G
~G3 A ~B3 A | GBdB cAAB | AGFG ~A3 B | cBAG FDEF |
~G3 A ~B3 A | GBdB cABc | dBcA BG ~G2 | FGAc BG G2 :||
dg ~g2 bgaf | defg agfe | dg ~g2 bgag | fdcA BGBc |
dg ~g2 bgaf | defg agfe | dg ~g2 dg ~g2 | ~a3 g fdcA :||

